X: 3416
M: 2/4
L: 1/16
K: A
ue2 |\
e2 |\
a2e2 c2(BA) | c2e2e2g2 | a2e2 c2(BA) |
=g2B2B2g2 |\
a2e2 c2(BA) | c2e2e2=g2 | ({B=c}B2AB) (GA)Bd | e2A2A2e2 |\
a2e2 c2(BA) | c2e2e2g2 | a2e2 c2BA | =g2B2B2g2 |\
a2gf g2fe | f2ed e2dc | B2(AB) =GABd | e2A2A2 :|


